X: 130880
T: Molloy's
S: "First Collection of Traditional Irish Music" (M.Mulvihill)
Z: B.Black
L: 1/8
M: 4/4
R: reel
K: D
A|: d2 Ad fdAF|GFEF GABc|d2 Ad fdAF|GBAG FD D2|
(3dcd Ad fdAF|GFEF GABc|d2 Ad fdAF|GBAG FD D2 :|
fagf gbag|fagf gfeg|fagf gbag|fgeg fddA|
fagf gbag|fagf gfeg|fedc dcBA|GABc dgfe ||
